www/assets/icons/add_alert.svg

<svg xmlns="http://www.w3.org/2000/svg" width="24" height="24" viewBox="0 0 24 24" fill='currentColor'><path d="M10.01 20.51c0 1.1.89 1.99 1.99 1.99s1.99-.89 1.99-1.99zm8.87-4.19V10.5c0-3.25-2.25-5.97-5.29-6.69v-.72c0-.88-.71-1.59-1.59-1.59s-1.59.71-1.59 1.59v.72a6.87 6.87 0 0 0-5.29 6.69v5.82L3 18.44v1.06h18v-1.06zM16 12.51h-3v3h-2v-3H8V10.5h3v-3h2v3h3z"/></svg>

<svg width="24" height="24" viewBox="0 0 24 24" xmlns="http://www.w3.org/2000/svg" fill='currentColor'><path d="M10.01 20.51C10.01 21.61 10.9 22.5 12 22.5C13.1 22.5 13.99 21.61 13.99 20.51H10.01ZM18.88 16.32V10.5C18.88 7.25 16.63 4.53 13.59 3.81V3.09C13.59 2.21 12.88 1.5 12 1.5C11.12 1.5 10.41 2.21 10.41 3.09V3.81C7.37 4.53 5.12 7.25 5.12 10.5V16.32L3 18.44V19.5H21V18.44L18.88 16.32ZM16 12.51H13V15.51H11V12.51H8V10.5H11V7.5H13V10.5H16V12.51Z"/></svg>
